brandFactory_export/3.Masa/Flecha Izquierda_3Masa.svg

<?xml version="1.0" encoding="UTF-8"?>
<svg width="24px" height="24px" viewBox="0 0 24 24" version="1.1" xmlns="http://www.w3.org/2000/svg" xmlns:xlink="http://www.w3.org/1999/xlink">
    <title>3.Masa/Flecha Izquierda_3Masa</title>
    <g id="Symbols" stroke="none" stroke-width="1" fill="none" fill-rule="evenodd">
        <g id="3.Masa/Flecha-Izquierda_3Masa" fill="#5CB615" fill-rule="nonzero">
            <path d="M11.7915966,0.0134453782 C11.9731092,0.0134453782 12.1512605,0.0470588235 12.3193277,0.114285714 C12.8403361,0.32605042 13.1596639,0.83697479 13.1529412,1.44201681 L13.1563025,5.82184874 C13.1697479,5.84537815 13.1831933,5.86890756 13.2033613,5.88907563 L21.4621849,5.91260504 C22.2016807,5.90252101 22.7462185,6.08739496 23.1226891,6.47394958 C23.4991597,6.8605042 23.6739496,7.40504202 23.6537815,8.14453782 L23.6537815,15.394958 C23.6638655,15.8991597 23.6168067,16.6252101 23.1294118,17.1294118 C22.6420168,17.6336134 21.9193277,17.707563 21.4184874,17.7142857 L21.4084034,17.7142857 L13.3546218,17.7109244 C13.287395,17.7210084 13.2268908,17.7411765 13.1663866,17.7747899 L13.1731092,22.0504202 L13.1731092,22.0537815 C13.1663866,23.0823529 12.6756303,23.4319328 12.3831933,23.5495798 C11.8823529,23.7512605 11.3042017,23.5663866 10.7966387,23.0453782 L0.406722689,12.5915966 C0.302521008,12.4907563 0.00336134454,12.194958 0.00669459198,11.7647059 C0.00669459198,11.5831933 0.0672268908,11.3109244 0.336134454,11.0521008 L10.5109244,0.605042017 C10.8739496,0.221848739 11.3411765,0.0134453782 11.7915966,0.0134453782 Z" id="Path"></path>
        </g>
    </g>
</svg>

<svg width="24" height="24" viewBox="0 0 24 24" xmlns="http://www.w3.org/2000/svg"><path d="M11.792.013c.181 0 .36.034.527.101.521.212.84.723.834 1.328l.003 4.38c.014.023.027.047.047.067l8.26.024c.739-.01 1.283.174 1.66.56.376.388.55.932.53 1.672v7.25c.01.504-.036 1.23-.524 1.734-.487.505-1.21.579-1.71.585h-.01l-8.054-.003a.543.543 0 00-.189.064l.007 4.275v.004c-.007 1.028-.497 1.378-.79 1.496-.5.201-1.079.016-1.586-.505L.407 12.592c-.104-.101-.404-.397-.4-.827 0-.182.06-.454.33-.713L10.51.605c.363-.383.83-.592 1.28-.592z" fill="#5CB615" fill-rule="nonzero"/></svg>
